assets/images/vector/icons/dark_light_icon.svg

<svg fill="none" height="59" viewBox="0 0 59 59" width="59" xmlns="http://www.w3.org/2000/svg"><path d="m29.166 19.1667v20c5.5233 0 10-4.4766 10-10 0-5.5233-4.4767-10-10-10z" fill="#111"/><path d="m29.1667 39.1667c-5.5234 0-10-4.4767-10-10 0-5.5234 4.4766-10 10-10v-14.1667c-13.3467 0-24.1667 10.82-24.1667 24.1667 0 13.3466 10.82 24.1666 24.1667 24.1666z" fill="#111"/><path d="m29.1667 53.3333c13.3468 0 24.1666-10.8198 24.1666-24.1666 0-13.3469-10.8198-24.1667-24.1666-24.1667-13.3469 0-24.1667 10.8198-24.1667 24.1667 0 13.3468 10.8198 24.1666 24.1667 24.1666z" stroke="#111" stroke-linecap="round" stroke-linejoin="round" stroke-width="10"/></svg>

<svg width="59" height="59" viewBox="0 0 59 59" fill="none" xmlns="http://www.w3.org/2000/svg">
<path d="M29.166 19.1667V39.1667C34.6893 39.1667 39.166 34.6901 39.166 29.1667C39.166 23.6434 34.6893 19.1667 29.166 19.1667Z" fill="#111111"/>
<path d="M29.1667 39.1667C23.6433 39.1667 19.1667 34.69 19.1667 29.1667C19.1667 23.6433 23.6433 19.1667 29.1667 19.1667V5C15.82 5 5 15.82 5 29.1667C5 42.5133 15.82 53.3333 29.1667 53.3333V39.1667Z" fill="#111111"/>
<path d="M29.1667 53.3333C42.5135 53.3333 53.3333 42.5135 53.3333 29.1667C53.3333 15.8198 42.5135 5 29.1667 5C15.8198 5 5 15.8198 5 29.1667C5 42.5135 15.8198 53.3333 29.1667 53.3333Z" stroke="#111111" stroke-width="10" stroke-linecap="round" stroke-linejoin="round"/>
</svg>
